rospo-icon-theme-classic-common/32x32/apps/scinotes.svg

<svg height="32" width="32" xmlns="http://www.w3.org/2000/svg"><path d="m27 28.5v-25c0-.831-.669-1.5-1.5-1.5h-19c-.831 0-1.5.669-1.5 1.5v25c0 .831.669 1.5 1.5 1.5h19c .831 0 1.5-.669 1.5-1.5z" fill="#e74c3c"/><path d="m6.5 2c-.831 0-1.5.669-1.5 1.5v1c0-.831.669-1.5 1.5-1.5h19c .831 0 1.5.669 1.5 1.5v-1c0-.831-.669-1.5-1.5-1.5z" fill="#fff" opacity=".2"/><path d="m9 8v1h13v-1zm0 3v1h14v-1zm0 3v1h13v-1zm0 3v1h11v-1zm0 3v1h13v-1zm0 3v1h11v-1z" fill="#fff"/><path d="m5 28.5v1c0 .831.669 1.5 1.5 1.5h19c .831 0 1.5-.669 1.5-1.5v-1c0 .831-.669 1.5-1.5 1.5h-19c-.831 0-1.5-.669-1.5-1.5z" opacity=".2"/><path d="m9 9v1h13v-1zm0 3v1h14v-1zm0 3v1h13v-1zm0 3v1h11v-1zm0 3v1h13v-1zm0 3v1h11v-1z" opacity=".2"/></svg>

<svg xmlns="http://www.w3.org/2000/svg" width="32" height="32" version="1">
 <path d="m27 28.5v-25c0-0.831-0.669-1.5-1.5-1.5h-19c-0.831 0-1.5 0.669-1.5 1.5v25c0 0.831 0.669 1.5 1.5 1.5h19c0.831 0 1.5-0.669 1.5-1.5z" style="fill:#e74c3c"/>
 <path fill="#fff" d="m6.5 2c-0.831 0-1.5 0.669-1.5 1.5v1c0-0.831 0.669-1.5 1.5-1.5h19c0.831 0 1.5 0.669 1.5 1.5v-1c0-0.831-0.669-1.5-1.5-1.5z" style="opacity:0.2"/>
 <path style="fill:#ffffff" d="M 9 8 L 9 9 L 22 9 L 22 8 L 9 8 z M 9 11 L 9 12 L 23 12 L 23 11 L 9 11 z M 9 14 L 9 15 L 22 15 L 22 14 L 9 14 z M 9 17 L 9 18 L 20 18 L 20 17 L 9 17 z M 9 20 L 9 21 L 22 21 L 22 20 L 9 20 z M 9 23 L 9 24 L 20 24 L 20 23 L 9 23 z"/>
 <path opacity=".2" d="m5 28.5v1c0 0.831 0.669 1.5 1.5 1.5h19c0.831 0 1.5-0.669 1.5-1.5v-1c0 0.831-0.669 1.5-1.5 1.5h-19c-0.831 0-1.5-0.669-1.5-1.5z"/>
 <path d="m 9,9 0,1 13,0 0,-1 -13,0 z m 0,3 0,1 14,0 0,-1 -14,0 z m 0,3 0,1 13,0 0,-1 -13,0 z m 0,3 0,1 11,0 0,-1 -11,0 z m 0,3 0,1 13,0 0,-1 -13,0 z m 0,3 0,1 11,0 0,-1 -11,0 z" style="opacity:0.2"/>
</svg>
